X: 1
T:Rathlin Island
R:reel
S:J\"orgen Fischer
Z:id:hn-reel-762
M:C|
K:Ador
e2dB eA~A2|e2dA AGBd|e2dB eA~A2|d2Bd BA~A2:|
|:A2AB EGBG|~A3B de~e2|AGAB dGBd|eged BA~A2:|
